X: 101
T: 101. Herr Christ, der ein'ge Gottes Sohn
N: Derived from chor101.krn
C: Johann Sebastian Bach
%%abc-version 2.0
%%abcx-abcm2ps-target-version 5.9.1 (29 Sep 2008)
%%abc-creator hum2abc beta
%%abcx-conversion-date 2019/03/11 17:28:18
%%abc-edited-by Craig Stuart Sapp
%%humdrum-veritas 159110666
%%humdrum-veritas-data 790846701
%%
%%barnumbers 0
L: 1/4
M: C
%%staves [1 2 3 4]
V: 1 clef=treble
V: 2 clef=treble
V: 3 clef=treble-8
V: 4 clef=bass
K: Bb
[V:1] B [I:setbarnb 1]| 
[V:2] F | 
[V:3] d | 
[V:4] B, | 
[V:1] B/c/dcB | 
[V:2] G/A/BAG | 
[V:3] eff/e/d | 
[V:4] E,B,,F,G, | 
[V:1] A2!fermata!Gd | 
[V:2] G^F!fermata!GG | 
[V:3] ed/c/!fermata!BB | 
[V:4] C,D,!fermata!E,G, | 
[V:1] ecdc | 
[V:2] G=FFF | 
[V:3] BABB/A/ | 
[V:4] C,F,/E,/ D,/E,/F, | 
[V:1] !fermata!B3 :|]  
[V:2] !fermata!F3 :|]  
[V:3] !fermata!d3 :|]  
[V:4] !fermata!B,,3 :|]  
[V:1] B/c/ [I:setbarnb 5]| 
[V:2] F | 
[V:3] d/e/ | 
[V:4] B,, | 
[V:1] ddee | 
[V:2] BB/A/GG | 
[V:3] fgg/f/ e/d/ | 
[V:4] B,/A,/G,/F,/ E,/D,/ C,/B,,/ | 
[V:1] fe/d/!fermata!cf | 
[V:2] F2!fermata!FF | 
[V:3] cB!fermata!Ac | 
[V:4] A,,B,,!fermata!F,,A,, | 
[V:1] ddcB | 
[V:2] FFF/E/D | 
[V:3] BBAA/G/ | 
[V:4] B,,/C,/D,/E,/ F,/^F,/ G,/B,,/ | 
[V:1] A2!fermata!Gd | 
[V:2] E/C/D!fermata!DG | 
[V:3] G^F!fermata!B=B | 
[V:4] C,/A,,/D,!fermata!G,,G, | 
[V:1] ecdc | 
[V:2] G=FF/G/A | 
[V:3] c/d/ e/A/Bf/e/ | 
[V:4] C/_B,/ A,/F,/ B,/E,/ F,/F,,/ | 
[V:1] !fermata!B3 |]  
[V:2] !fermata!F3 |]  
[V:3] !fermata!d3 |]  
[V:4] !fermata!B,,3 |]  



